!!!OTL: RUMME RUMME ROSENKRANZ
!!!ARE: Europa, Mitteleuropa, Deutschland, Siegen
!!!SCT: K2065
!!!YEM: Copyright 1995, estate of Helmut Schaffrath.
**kern
*ICvox
*Ivox
*M2/4
*k[b-]
*F:
=1
{8cc
8cc
8dd
8dd
=2
8cc
8cc
8a}
{8a
=3
8cc
8cc
8dd
8dd
=4
4cc
8a}
{8a
=5
8cc
8cc
8dd
8dd
=6
4cc
8a}
{8a
=7
8cc
8cc
8dd
8dd
=8
8cc
8cc
4a}
=9
{8cc
8cc
8dd
8dd
=10
8cc
8cc
4a
=11
2ff}
==
!!!AGN: Kinder - Lied, Reigen, Tanz - Spiel
!!!ONB: ESAC (Essen Associative Code) Database: KINDER
!!!AMT: simple duple
!!!AIN: vox
!!!EED: Helmut Schaffrath
!!!EEV: 1.0
*-
